styles/2/Numix/48/places/brown-folder-open.svg

<?xml version="1.0" encoding="UTF-8" standalone="no"?>
<svg
   xmlns:dc="http://purl.org/dc/elements/1.1/"
   xmlns:cc="http://creativecommons.org/ns#"
   xmlns:rdf="http://www.w3.org/1999/02/22-rdf-syntax-ns#"
   xmlns:svg="http://www.w3.org/2000/svg"
   xmlns="http://www.w3.org/2000/svg"
   xmlns:sodipodi="http://sodipodi.sourceforge.net/DTD/sodipodi-0.dtd"
   xmlns:inkscape="http://www.inkscape.org/namespaces/inkscape"
   width="48"
   viewBox="0 0 48 48"
   height="48"
   id="svg2"
   version="1.1"
   inkscape:version="0.91 r"
   sodipodi:docname="brown-folder-open.svg">
  <metadata
     id="metadata14">
    <rdf:RDF>
      <cc:Work
         rdf:about="">
        <dc:format>image/svg+xml</dc:format>
        <dc:type
           rdf:resource="http://purl.org/dc/dcmitype/StillImage" />
      </cc:Work>
    </rdf:RDF>
  </metadata>
  <defs
     id="defs12" />
  <sodipodi:namedview
     pagecolor="#ffffff"
     bordercolor="#666666"
     borderopacity="1"
     objecttolerance="10"
     gridtolerance="10"
     guidetolerance="10"
     inkscape:pageopacity="0"
     inkscape:pageshadow="2"
     inkscape:window-width="1280"
     inkscape:window-height="969"
     id="namedview10"
     showgrid="true"
     inkscape:zoom="5.6568543"
     inkscape:cx="14.051111"
     inkscape:cy="40.03533"
     inkscape:window-x="0"
     inkscape:window-y="0"
     inkscape:window-maximized="1"
     inkscape:current-layer="svg2">
    <inkscape:grid
       type="xygrid"
       id="grid3000" />
  </sodipodi:namedview>
  <path
     style="font-size:medium;font-style:normal;font-variant:normal;font-weight:normal;font-stretch:normal;text-indent:0;text-align:start;text-decoration:none;line-height:normal;letter-spacing:normal;word-spacing:normal;text-transform:none;direction:ltr;block-progression:tb;writing-mode:lr-tb;text-anchor:start;baseline-shift:baseline;color:#000000;fill:#8d6e63;fill-opacity:1;fill-rule:nonzero;stroke:none;stroke-width:1;marker:none;visibility:visible;display:inline;overflow:visible;enable-background:accumulate;font-family:Sans;-inkscape-font-specification:Sans"
     d="m 5.9999996,6 c -1,0 -2,1 -2,2 L 4,18 3,18 c -1,0 -2.00556915,0.949207 -2.00000015,2 l -3.5e-7,20 c 1.28e-4,1.120734 1.0377631,1.9999 2.1875001,2 L 44.8125,42 C 46,42 47,41 47,40 l 0,-17 c 0,-1 -1,-2 -2,-2 L 43,21 43,8 C 43,7 42,6 41,6 z"
     id="path3770"
     inkscape:connector-curvature="0"
     sodipodi:nodetypes="sscsccccccccsss" />
  <path
     inkscape:connector-curvature="0"
     style="font-size:medium;font-style:normal;font-variant:normal;font-weight:normal;font-stretch:normal;text-indent:0;text-align:start;text-decoration:none;line-height:normal;letter-spacing:normal;word-spacing:normal;text-transform:none;direction:ltr;block-progression:tb;writing-mode:lr-tb;text-anchor:start;baseline-shift:baseline;color:#000000;fill:#000000;fill-opacity:0.32156863;fill-rule:nonzero;stroke:none;stroke-width:1;marker:none;visibility:visible;display:inline;overflow:visible;enable-background:accumulate;font-family:Sans;-inkscape-font-specification:Sans"
     d="m 5.9999996,6 c -1,0 -2,1 -2,2 L 4,18 3,18 c -1,0 -2.00556915,0.949207 -2.00000015,2 l -3.5e-7,20 c 1.28e-4,1.120734 1.0377631,1.9999 2.1875001,2 L 44.8125,42 C 46,42 47,41 47,40 l 0,-17 c 0,-1 -1,-2 -2,-2 L 43,21 43,8 C 43,7 42,6 41,6 z M 3,19 27,19 c 0.507314,0 1,0.494167 1,1 l 0,2 17,0 c 0.540858,0 1,0.471809 1,1 l 0,17 c 0,0.553755 -0.452115,1 -1,1 L 2.9999996,41 c -0.5127258,0 -1,-0.446246 -1,-1 L 2,20 c 0,-0.543318 0.4790423,-1 1,-1 z"
     id="path3779"
     sodipodi:nodetypes="sscscccsssscsssssscssssssss" />
</svg>

<svg xmlns="http://www.w3.org/2000/svg" viewBox="0 0 48 48">
 <path d="m 6 6 c -1 0 -2 1 -2 2 l 0 10 -1 0 c -1 0 -2.01 0.949 -2 2 l 0 20 c 0 1.121 1.038 2 2.188 2 l 41.625 0 c 1.188 0 2.188 -1 2.188 -2 l 0 -17 c 0 -1 -1 -2 -2 -2 l -2 0 0 -13 c 0 -1 -1 -2 -2 -2 z" style="visibility:visible;fill:#8d6e63;fill-opacity:1;stroke:none;display:inline;color:#000;fill-rule:nonzero"/>
 <path d="m 6 6 c -1 0 -2 1 -2 2 l 0 10 -1 0 c -1 0 -2.01 0.949 -2 2 l 0 20 c 0 1.121 1.038 2 2.188 2 l 41.625 0 c 1.188 0 2.188 -1 2.188 -2 l 0 -17 c 0 -1 -1 -2 -2 -2 l -2 0 0 -13 c 0 -1 -1 -2 -2 -2 z m -3 13 24 0 c 0.507 0 1 0.494 1 1 l 0 2 17 0 c 0.541 0 1 0.472 1 1 l 0 17 c 0 0.554 -0.452 1 -1 1 l -42 0 c -0.513 0 -1 -0.446 -1 -1 l 0 -20 c 0 -0.543 0.479 -1 1 -1 z" style="visibility:visible;fill:#000;fill-opacity:0.322;stroke:none;display:inline;color:#000;fill-rule:nonzero"/>
</svg>
